X:1
T:Mein einiger Trost
T:Orlando di Lasso
T:Mein einiger Trost
C:Orlando di Lasso
%%score [ 1 2 3 4 ]
L:1/8
Q:1/4=80
M:4/4
K:F
V:1 treble nm="Soprano" snm="S"
V:2 treble nm="Alto" snm="A"
V:3 treble-8 nm="Tenor" snm="T"
V:4 bass nm="Bass" snm="B"
V:1
 z8 | c2 ff e2 c2 | z ccA Bc d2- | dc c3 =B/A/ B2 | c2 G2 A2 A2 | G2 z c c2 c2 | c2 B2 A3 A | %7
w: |Mein ein- zi- ger Trost,|nach dir steht mein Ver- lan-||gen, dein gel- bes|Haar, dein Äug- lein|klar ha- ben mich|
 GF F3 E/D/ E2 | F2 z c cBcc | dccA B3 B | cc d3 c c2- | c =B/A/ B2 c2 G2 | A2 A2 G2 z c | %13
w: ganz ge- fan- * * *|gen, dein freund- lich Herz, dein|freund- lich Herz die Lieb in|mir tut meh- * *|* * * * ren, dar-|um ich bitt, ver-|
 c2 c2 c2 B2 | A3 A GF F2- | F E/D/ E2 F4 | z2 A2 B2 c2 | c2 c2 d3 d | cA c2 cc d2 | d2 c2 z c A2 | %20
w: schmäh mich nit und|tu dich zu mir keh-|* * * * ren;|wann es möcht|sein in Züch- ten|und in Eh- ren, so wär|mein Will, so wär|
 A2 GG A2 B2 | cd B2 A4 | z2 A2 B4 | B4 A4 | f2 fe dc B2 | B2 z f fedc | B4 B3 B | A2 G2 A2 z c | %28
w: mein Will, freund- lich mit|dir zu scher- zen.|Herz- lieb-|ste mein,|tröst mich in mei- nen Schmer-|zen, tröst mich in mei- nen|Schmer- zen, dann|will ich sein, dann|
 e2 f2 e2 z c | e2 f2 e2 c2 | c2 B2 A2 c2 | c4 c4 | z2 A2 B4 | B4 A4 | f2 fe dc B2 | B2 z f fedc | %36
w: will ich sein, dann|will ich sein dein|Die- ner stets von|Her- zen;|Herz- lieb-|ste mein,|tröst mich in mei- nen Schmer-|zen, tröst mich in mei- nen|
 B4 B3 B | A2 G2 A2 z c | e2 f2 e2 z c | e2 f2 e2 c2 | c2 B2 A2 c2 | c8 | c8 |] %43
w: Schmer- zen, dann|will ich sein, dann|will ich sein, dann|will ich sein dein|Die- ner stets von|Her-|zen.|
V:2
 F2 BB A2 F2 | A3 A G2 A2 | G2 FE G2 A2- | AGE^F G4 | E2 E2 E2 F2 | E2 G2 A2 A2 | G4 F2 EF | %7
w: Mein ein- zi- ger Trost,|nach dir steht mein|Ver- * * * lan-||gen, dein gel- bes|Haar, dein Äug- lein|klar ha- ben mich|
 D2 D2 C4 | C2 z C FGAA | BGAF F2 G2 | A6 F2 | G4 E2 E2 | E2 F2 E2 G2 | A2 A2 G4 | F2 EF D2 D2 | %15
w: ganz ge- fan-|gen, dein freund- lich Herz, dein|freund- lich Herz die Lieb in|mir tut|meh- ren, dar-|um ich bitt, ver-|schmäh mich nit|und tu dich zu mir|
 C4 C4 | z2 F2 F2 A2 | G2 A2 B3 B | GF G2 AA B2 | B2 G2 z A F2 | F2 DD F3 G | FD G2 C4 | %22
w: keh- ren;|wann es möcht|sein in Züch- ten|und in Eh- ren, so wär|mein Will, so wär|mein Will, freund- lich mit|dir zu scher- zen.|
 z2 F2 G4- | G2 F2 FccB | AG F2 F2 G2 | GG F2 F4 | G4 F2 F2 | F2 D2 F2 A2 | G2 F2 G2 C2 | %29
w: Herz- lieb-|* ste mein, tröst mich in|mei- nen Schmer- zen, tröst|mich in mei- nen|Schmer- zen, dann|will ich sein, dann|will ich sein, dann|
 C2 =B,2 C2 E2 | A2 G2 E2 A2 | G4 A4 | z2 F2 G4- | G2 F2 FccB | AG F2 F2 G2 | GG F2 F4 | G4 F2 F2 | %37
w: will ich sein dein|Die- ner stets von|Her- zen;|Herz- lieb-|* ste mein, tröst mich in|mei- nen Schmer- zen, tröst|mich in mei- nen|Schmer- zen, dann|
 F2 D2 F2 A2 | G2 F2 G2 C2 | C2 =B,2 C2 E2 | A2 G2 E2 A2 | G8 | A8 |] %43
w: will ich sein, dann|will ich sein, dann|will ich sein dein|Die- ner stets von|Her-|zen.|
V:3
 z8 | z4 c2 ff | e2 c2 d2 ff | e2 c2 d4 | c2 z c c2 c2 | c2 e2 e2 f2 | e2 d2 d2 c2 | B3 A G4 | %8
w: |Mein ein- zi-|ger Trost, nach dir steht|mein Ver- lan-|gen, dein gel- bes|Haar, dein Äug- lein|klar ha- ben mich|ganz ge- fan-|
 A4 z2 f2 | fefc d2 d2 | f2 f2 e2 dc | d4 c2 z c | c2 c2 c2 e2 | e2 f2 e2 d2 | d2 c2 B3 A | G4 A4 | %16
w: gen, dein|freund- lich Herz die Lieb in|mir tut meh- * *|* ren, dar-|um ich bitt, ver-|schmäh mich nit und|tu dich zu mir|keh- ren;|
 z2 c2 d2 f2 | ee f3 d g2 | e f2 e f2 z f | g2 e2 f2 z c | d2 =B2 ccdd | c f2 e f4 | z2 c2 _e4 | %23
w: wann es möcht|sein in Züch- ten und|in Eh- * ren, so|wär mein Will, so|wär mein Will, freund- lich mit|dir zu scher- zen.|Herz- lieb-|
 d4 c2 f2 | fe d4 d2 | _e2 d2 d2 Bc | dd _e2 d2 d2 | c2 =B2 c2 f2 | c2 d2 c2 A2 | G2 F2 G2 g2 | %30
w: ste mein, tröst|mich in mei- nen|Schmer- zen, tröst mich in|mei- nen Schmer- zen, dann|will ich sein, dann|will ich sein, dann|will ich sein dein|
 f2 d2 cc f2- | f e/d/ e2 f4 | z2 c2 _e4 | d4 c2 f2 | fe d4 d2 | _e2 d2 d2 Bc | dd _e2 d2 d2 | %37
w: Die- ner stets von Her-|* * * * zen;|Herz- lieb-|ste mein, tröst|mich in mei- nen|Schmer- zen, tröst mich in|mei- nen Schmer- zen, dann|
 c2 =B2 c2 f2 | c2 d2 c2 A2 | G2 F2 G2 g2 | f2 d2 cc f2- | f2 ed e f2 e | f8 |] %43
w: will ich sein, dann|will ich sein, dann|will ich sein dein|Die- ner stets von Her-||zen.|
V:4
 z4 F,2 B,B, | A,2 F,2 z2 F,2 | C2 A,2 G,2 D,2 | A,4 G,4 | z2 C2 A,2 F,2 | C,2 C2 A,2 F,2 | %6
w: Mein ein- zi-|ger Trost, nach|dir steht mein Ver-|lan- gen,|dein gel- bes|Haar, dein Äug- lein|
 C,2 G,2 D,2 A,,2 | B,,2 B,,2 C,4 | F,4 z2 F,2 | B,CF,F, B,2 G,2 | F,2 D,2 A,4 | G,4 z2 C2 | %12
w: klar ha- ben mich|ganz ge- fan-|gen, dein|freund- lich Herz die Lieb in|mir tut meh-|ren, dar-|
 A,2 F,2 C,2 C2 | A,2 F,2 C,2 G,2 | D,2 A,,2 B,,2 B,,2 | C,4 F,4 | z2 F,2 B,2 F,2 | %17
w: um ich bitt, ver-|schmäh mich nit und|tu dich zu mir|keh- ren;|wann es möcht|
 C2 z F, B,2 G,2 | CD C2 F,2 z B, | G,2 C2 F,2 z F, | D,2 G,2 F,F,B,G, | A,B, G,2 F,4 | %22
w: sein in Züch- ten|und in Eh- ren, so|wär mein Will, so|wär mein Will, freund- lich mit|dir zu scher- zen.|
 z2 F,2 _E,3 F, | G,2 B,2 F,4 | z2 B,2 B,A,G,F, | _E,2 B,,2 B,2 B,A, | G,F, _E,2 B,,2 B,2 | %27
w: Herz- lieb- *|* ste mein,|tröst mich in mei- nen|Schmer- zen, tröst mich in|mei- nen Schmer- zen, dann|
 F,2 G,2 F,4 | z4 z2 F,2 | C,2 D,2 C,2 C,2 | F,2 G,2 A,2 F,2 | C4 F,4 | z2 F,2 _E,3 F, | %33
w: will ich sein,|dann|will ich sein dein|Die- ner stets von|Her- zen;|Herz- lieb- *|
 G,2 B,2 F,4 | z2 B,2 B,A,G,F, | _E,2 B,,2 B,2 B,A, | G,F, _E,2 B,,2 B,2 | F,2 G,2 F,4 | %38
w: * ste mein,|tröst mich in mei- nen|Schmer- zen, tröst mich in|mei- nen Schmer- zen, dann|will ich sein,|
 z4 z2 F,2 | C,2 D,2 C,2 C,2 | F,2 G,2 A,2 F,2 | C8 | F,8 |] %43
w: dann|will ich sein dein|Die- ner stets von|Her-|zen.|

